svgs/thin/hat-winter.svg

<svg xmlns="http://www.w3.org/2000/svg" viewBox="0 0 512 512"><!--! Font Awesome Pro 6.3.0 by @fontawesome - https://fontawesome.com License - https://fontawesome.com/license (Commercial License) Copyright 2023 Fonticons, Inc. --><path d="M191.2 106.9C188.5 117.5 191.4 128.7 199.4 136.7C207.3 144.3 218.3 147.9 229.2 144.1C234.1 154.2 244.9 160 256 160s21.05-5.828 26.8-15.08c11.06 2.969 21.68-.5531 29.87-8.334c7.906-7.938 10.77-19.15 8.15-29.74C330.2 101.1 336 91.09 336 80s-5.828-21.11-15.17-26.86c2.625-10.59-.3094-21.84-8.216-29.78c-7.938-7.938-19.07-10.91-29.75-8.159C277.1 5.859 267.1 0 256 0S234.9 5.844 229.1 15.19C218.4 12.41 207.3 15.48 199.4 23.38C191.5 31.32 188.6 42.56 191.2 53.16C181.8 58.91 176 68.91 176 80S181.8 101.1 191.2 106.9zM203.7 64.94c2.312-.7187 4.156-2.406 5.062-4.656c.9062-2.219 .75-4.75-.4062-6.844c-3.438-6.312-2.5-13.84 2.375-18.75c4.906-4.844 12.5-5.75 18.75-2.375c2.125 1.156 4.625 1.375 6.844 .4062c2.25-.9062 3.938-2.75 4.656-5.062C243.1 20.69 249.1 16 256 16s12.94 4.688 15.06 11.66c.7187 2.312 2.406 4.156 4.656 5.062c2.25 .9687 4.781 .75 6.844-.4062c6.375-3.438 13.84-2.469 18.75 2.375c4.875 4.906 5.812 12.44 2.375 18.75c-1.156 2.094-1.312 4.625-.4062 6.844c.9062 2.25 2.75 3.938 5.062 4.656C315.3 67.06 320 73.13 320 80s-4.688 12.94-11.66 15.06c-2.312 .7187-4.156 2.406-5.062 4.656c-.9062 2.219-.75 4.75 .4062 6.844c3.438 6.312 2.5 13.84-2.219 18.59c-4.906 4.656-10.25 7.062-19 2.469c-2.094-1.156-4.688-1.281-6.812-.3438c-2.219 .9375-3.875 2.781-4.594 5.062C268.9 139.3 262.9 144 256 144S243.1 139.3 240.9 132.3C240.2 130 238.5 128.2 236.3 127.3c-.9687-.4062-2-.5938-3.031-.5938c-1.312 0-2.625 .3125-3.812 .9687C221.1 132.2 215.3 129.8 210.7 125.3C205.8 120.4 204.9 112.9 208.3 106.6c1.156-2.094 1.312-4.625 .4062-6.844C207.8 97.47 205.1 95.78 203.7 95.06C196.7 92.94 192 86.88 192 80S196.7 67.06 203.7 64.94zM488 416H24C10.78 416 0 426.8 0 440v48C0 501.2 10.78 512 24 512h464c13.22 0 24-10.78 24-24v-48C512 426.8 501.2 416 488 416zM496 488c0 4.344-3.656 8-8 8H24c-4.344 0-8-3.656-8-8v-48c0-4.344 3.656-8 8-8h464c4.344 0 8 3.656 8 8V488zM40 384c4.406 0 8-3.594 8-8c0-17.84 2.289-35.23 5.598-52.27l6.84 3.422c2.25 1.125 4.875 1.125 7.125 0L128 296.9l60.44 30.22c2.25 1.125 4.875 1.125 7.125 0L256 296.9l60.44 30.22c2.25 1.125 4.875 1.125 7.125 0L384 296.9l60.44 30.22C445.6 327.7 446.8 328 448 328s2.438-.2813 3.562-.8438l6.84-3.422C461.7 340.8 464 358.2 464 376c0 4.406 3.594 8 8 8S480 380.4 480 376c0-104.6-56.53-200.8-140.7-239.3c-4.062-1.812-8.781-.0938-10.62 3.938s-.0625 8.781 3.938 10.62c59.78 27.37 104.5 86.27 122.5 156.2L448 311.1l-60.44-30.22c-2.25-1.125-4.875-1.125-7.125 0L320 311.1l-60.44-30.22c-2.25-1.125-4.875-1.125-7.125 0L192 311.1L131.6 280.8c-2.25-1.125-4.875-1.125-7.125 0L64 311.1L56.86 307.5C74.89 237.6 119.6 178.6 179.3 151.3c4-1.844 5.781-6.594 3.938-10.62C181.4 136.6 176.7 134.9 172.7 136.7C88.53 175.3 32 271.4 32 376C32 380.4 35.59 384 40 384z"/></svg>

<svg xmlns="http://www.w3.org/2000/svg" viewBox="0 0 512 512"><!-- Font Awesome Pro 6.0.0-alpha2 by @fontawesome - https://fontawesome.com License - https://fontawesome.com/license (Commercial License) --><path d="M191.188 106.844C188.562 117.469 191.469 128.688 199.438 136.688C207.281 144.344 218.313 147.938 229.219 144.969C234.969 154.188 244.938 160 256 160S277.031 154.188 282.781 144.938C293.844 147.906 304.438 144.406 312.625 136.625C320.531 128.688 323.438 117.438 320.813 106.844C330.156 101.094 336 91.094 336 80S330.156 58.906 320.812 53.156C323.437 42.562 320.531 31.312 312.625 23.375C304.687 15.437 293.531 12.437 282.844 15.187C277.094 5.844 267.094 0 256 0S234.906 5.844 229.156 15.188C218.438 12.406 207.312 15.469 199.375 23.375C191.469 31.312 188.562 42.562 191.188 53.156C181.844 58.906 176 68.906 176 80S181.844 101.094 191.188 106.844ZM203.656 64.938C205.969 64.219 207.812 62.531 208.719 60.281C209.625 58.063 209.469 55.531 208.312 53.438C204.875 47.125 205.812 39.594 210.688 34.688C215.594 29.844 223.188 28.938 229.438 32.312C231.562 33.469 234.062 33.688 236.281 32.719C238.531 31.812 240.219 29.969 240.938 27.656C243.062 20.688 249.125 16 256 16S268.938 20.688 271.062 27.656C271.781 29.969 273.469 31.812 275.719 32.719C277.969 33.687 280.5 33.469 282.562 32.312C288.938 28.875 296.406 29.844 301.312 34.688C306.188 39.594 307.125 47.125 303.688 53.438C302.531 55.531 302.375 58.062 303.281 60.281C304.188 62.531 306.031 64.219 308.344 64.938C315.312 67.062 320 73.125 320 80S315.312 92.938 308.344 95.062C306.031 95.781 304.188 97.469 303.281 99.719C302.375 101.937 302.531 104.469 303.688 106.562C307.125 112.875 306.188 120.406 301.469 125.156C296.563 129.812 291.219 132.219 282.469 127.625C280.375 126.469 277.781 126.344 275.656 127.281C273.438 128.219 271.781 130.062 271.063 132.344C268.938 139.312 262.875 144 256 144S243.062 139.312 240.938 132.344C240.219 130.031 238.531 128.188 236.312 127.281C235.344 126.875 234.312 126.688 233.281 126.688C231.969 126.688 230.656 127 229.469 127.656C221.094 132.219 215.312 129.844 210.688 125.312C205.812 120.406 204.875 112.875 208.312 106.562C209.469 104.469 209.625 101.938 208.719 99.719C207.812 97.469 205.969 95.781 203.656 95.062C196.688 92.938 192 86.875 192 80S196.688 67.062 203.656 64.938ZM488 416H24C10.781 416 0 426.781 0 440V488C0 501.219 10.781 512 24 512H488C501.219 512 512 501.219 512 488V440C512 426.781 501.219 416 488 416ZM496 488C496 492.344 492.344 496 488 496H24C19.656 496 16 492.344 16 488V440C16 435.656 19.656 432 24 432H488C492.344 432 496 435.656 496 440V488ZM40 384C44.406 384 48 380.406 48 376C48 358.156 50.289 340.773 53.598 323.734L60.438 327.156C62.688 328.281 65.313 328.281 67.562 327.156L128 296.938L188.438 327.156C190.688 328.281 193.313 328.281 195.562 327.156L256 296.938L316.438 327.156C318.688 328.281 321.313 328.281 323.562 327.156L384 296.938L444.438 327.156C445.562 327.719 446.781 328 448 328S450.438 327.719 451.562 327.156L458.402 323.734C461.711 340.773 464 358.156 464 376C464 380.406 467.594 384 472 384S480 380.406 480 376C480 271.406 423.469 175.25 339.344 136.719C335.281 134.906 330.562 136.625 328.719 140.656S328.656 149.438 332.656 151.281C392.438 178.648 437.113 237.555 455.141 307.492L448 311.062L387.562 280.844C385.312 279.719 382.687 279.719 380.438 280.844L320 311.062L259.562 280.844C257.312 279.719 254.687 279.719 252.438 280.844L192 311.062L131.562 280.844C129.312 279.719 126.687 279.719 124.438 280.844L64 311.062L56.859 307.492C74.887 237.555 119.562 178.648 179.344 151.281C183.344 149.438 185.125 144.688 183.281 140.656C181.406 136.625 176.688 134.875 172.656 136.719C88.531 175.25 32 271.406 32 376C32 380.406 35.594 384 40 384Z"/></svg>
